assets/icons/utility/shopping_bag.svg

<?xml version="1.0"?><svg xmlns="http://www.w3.org/2000/svg" width="52" height="52" viewBox="0 0 52 52"><path d="m64.7 19.1v0.4-0.4z"></path><path fill="#fff" d="m44 19.6c0-2.2-1.8-4-4-4h-0.7c-0.5-6.8-6.2-12.2-13.2-12.2s-12.6 5.4-13.2 12.2h-0.9c-2.2 0-4 1.8-4 4l-2 25c0 2.2 1.8 4 4 4h32c2.2 0 4-1.8 4-4l-2-25z m-17.9-10.2c3.7 0 6.7 2.7 7.2 6.2h-14.4c0.6-3.5 3.6-6.2 7.2-6.2z m5.7 18.2h-11.6c-1.7 0-3-1.4-3-3s1.4-3 3-3h11.7c1.7 0 3 1.4 3 3s-1.4 3-3.1 3z"></path></svg>

<svg xmlns="http://www.w3.org/2000/svg" width="52" height="52" viewBox="0 0 52 52"><path d="M44,19.6a4,4,0,0,0-4-4h-.7a13.24,13.24,0,0,0-26.4,0H12a4,4,0,0,0-4,4l-2,25a4,4,0,0,0,4,4H42a4,4,0,0,0,4-4ZM26.1,9.4a7.24,7.24,0,0,1,7.2,6.2H18.9A7.39,7.39,0,0,1,26.1,9.4Zm5.7,18.2H20.2a3,3,0,0,1-3-3,3.08,3.08,0,0,1,3-3H31.9a3,3,0,0,1,3,3A3.1,3.1,0,0,1,31.8,27.6Z" fill="#fff"/></svg>
